X:1
T:Sainte Marie, fille de Dieu
C:M.Wackenheim
M:C
K:C
C2CC C4|D2CD E4|E2EE E4|F2EF G2G2|G2GG G4|A2GF E2E2|G2GG G4|"Re"A2GA "Sol"B2zG|
c2c2 B3G|A2c2 G2zG|F2GF E2C2|E4 D2zG|c2c2 B3G|A2c2 G2zG|F2GF E2C2|D4 C2z2||
